X: 1
T: Es is ein Ros' entsprungen
T: Lo, How a Rose E're Blooming
M: 2/4
L: 1/4
K: F
|: "F"c2 | cc \
| "Bb"d"F"c | "C"c2 \
| "Dm"A2 | "Bb"B2 \
| "F"A"C"G | "Dm"GF- \
| "Bb"F"C"E | "F"F2 :| \
| "F"zA | "Em"GE |
| "F"F"G"D | "C"C/D/E \
| zc | c"F"c \
| "Bb"d"F"c | "C"c2 \
| "D"A2 | "Gm"B2 \
| "Am"A"Gm"G | "C"G"Dm"F \
| "Bb"F"C"E | "F"F2 |]
